assets/sonr-icons/axl.svg

<svg xmlns="http://www.w3.org/2000/svg" width="24" height="24" fill="none" viewBox="0 0 24 24"><path fill="#000" d="M13.231 10.328L19.695 3.86401L17.242 1.41101L12.004 6.64901L6.76601 1.41101L4.31401 3.86301L10.778 10.327C11.116 10.665 11.56 10.835 12.004 10.835C12.448 10.835 12.891 10.665 13.23 10.327L13.231 10.328ZM22.588 17.234L17.35 11.996L22.588 6.75801L20.135 4.30601L13.671 10.77C12.994 11.447 12.994 12.545 13.671 13.222L20.135 19.686L22.588 17.234ZM11.995 17.351L17.233 22.589L19.686 20.136L13.222 13.672C12.545 12.995 11.447 12.995 10.77 13.672L4.30601 20.136L6.75901 22.589L11.997 17.351H11.995ZM10.328 13.231C10.653 12.905 10.836 12.464 10.836 12.005C10.836 11.546 10.654 11.104 10.328 10.779L3.86401 4.31501L1.41101 6.76701L6.64901 12.005L1.41101 17.243L3.86301 19.696L10.327 13.232L10.328 13.231Z"/></svg>

<svg xmlns="http://www.w3.org/2000/svg" width="24" height="24" fill="none"><path fill="currentColor" d="m13.231 10.328 6.464-6.464-2.453-2.453-5.238 5.238-5.238-5.238-2.452 2.452 6.464 6.464a1.73 1.73 0 0 0 2.452 0zm9.357 6.906-5.238-5.238 5.238-5.238-2.453-2.452-6.464 6.464a1.734 1.734 0 0 0 0 2.452l6.464 6.464zm-10.593.117 5.238 5.238 2.453-2.453-6.464-6.464a1.734 1.734 0 0 0-2.452 0l-6.464 6.464 2.453 2.453 5.238-5.238zm-1.667-4.12a1.74 1.74 0 0 0 0-2.452L3.864 4.315 1.411 6.767l5.238 5.238-5.238 5.238 2.452 2.453z"/></svg>
